src/standard/community-culture.svg

<svg xmlns="http://www.w3.org/2000/svg" viewBox="0 0 36 36">
  <path d="M21.69 17.07a6.48 6.48 0 0 0 6.47-6.48c-.27-8.56-12.7-8.54-12.95 0a6.48 6.48 0 0 0 6.48 6.48ZM18.55 6.41a5.23 5.23 0 1 1 3.14 9.41 5.26 5.26 0 0 1-3.14-9.41Zm-8.7 6.31a6.5 6.5 0 0 0-6.47 6.48c.3 8.57 12.64 8.57 13 0a6.49 6.49 0 0 0-6.53-6.48Zm0 11.71C2.94 24.2 3 14.18 9.85 14c6.91.19 6.91 10.21 0 10.43Zm13.36-5.76a6.5 6.5 0 0 0-6.47 6.48c.3 8.57 12.64 8.57 13 0a6.49 6.49 0 0 0-6.53-6.48Zm0 11.71c-6.91-.23-6.9-10.25 0-10.46 6.91.22 6.91 10.24 0 10.46Zm7.89-15.75a2.58 2.58 0 0 0-2.1 4.71 2.58 2.58 0 0 0 2.1-4.71Zm.16 2.9a1.33 1.33 0 0 1-2.42-1.08 1.33 1.33 0 0 1 2.42 1.08ZM10.29 11a2.58 2.58 0 0 0 2.1-4.71 2.58 2.58 0 0 0-2.1 4.71Zm-.16-2.89a1.33 1.33 0 0 1 2.42 1.09 1.33 1.33 0 0 1-2.42-1.08ZM14.6 26.5a2.58 2.58 0 0 0-2.09 4.71 2.58 2.58 0 0 0 2.09-4.71Zm.17 2.9a1.33 1.33 0 0 1-2.42-1.08 1.33 1.33 0 0 1 2.42 1.08Z"/>
</svg>

<svg id="af6f4e5c-4205-43ce-8998-c06f61e962b3" data-name="Icon" xmlns="http://www.w3.org/2000/svg" viewBox="0 0 36 36">
  <title>Community culture icon - Black</title>
<desc>open source, collaboration, upstream, downstream, contribute, contribution, connect, github, support, diagrams and graphs</desc>
<metadata><?xpacket begin="﻿" id="W5M0MpCehiHzreSzNTczkc9d"?>
<x:xmpmeta xmlns:x="adobe:ns:meta/" x:xmptk="Adobe XMP Core 8.0-c001 1.000000, 0000/00/00-00:00:00        ">
   <rdf:RDF xmlns:rdf="http://www.w3.org/1999/02/22-rdf-syntax-ns#">
      <rdf:Description rdf:about=""
            xmlns:xmp="http://ns.adobe.com/xap/1.0/"
            xmlns:dc="http://purl.org/dc/elements/1.1/"
            xmlns:cq="http://www.day.com/jcr/cq/1.0"
            xmlns:tiff="http://ns.adobe.com/tiff/1.0/">
         <xmp:rhcc-effective-on>2023-12-08T17:34:46.416Z</xmp:rhcc-effective-on>
         <xmp:rhcc-metadata-complete-moderator>pending</xmp:rhcc-metadata-complete-moderator>
         <xmp:rhcc-translation-id>TRA035bcb6a-5933-49ca-a38f-f01bad72869f</xmp:rhcc-translation-id>
         <xmp:brand-content-type>Icon</xmp:brand-content-type>
         <xmp:CreateDate>2023-12-08T17:34:46.416Z</xmp:CreateDate>
         <xmp:rhcc-effective-on-set-on-upload>true</xmp:rhcc-effective-on-set-on-upload>
         <xmp:rhcc-metadata-complete-uploader>pending</xmp:rhcc-metadata-complete-uploader>
         <xmp:rhcc-file-last-modified>2023-12-08T17:35:17.397Z</xmp:rhcc-file-last-modified>
         <xmp:rhcc-audience>rhcc-audience:internal</xmp:rhcc-audience>
         <xmp:rhcc-rights-restricted>no</xmp:rhcc-rights-restricted>
         <xmp:brand-content-subtype>Icon</xmp:brand-content-subtype>
         <xmp:rhcc-derivative-id>DER035bcb6a-5933-49ca-a38f-f01bad72869f</xmp:rhcc-derivative-id>
         <xmp:brand-logo-color>Black</xmp:brand-logo-color>
         <xmp:rhcc-notify-portal-subscribers-on-change>yes</xmp:rhcc-notify-portal-subscribers-on-change>
         <dc:format>image/svg+xml</dc:format>
         <dc:modified>2024-02-09T20:34:10.095Z</dc:modified>
         <dc:title>
            <rdf:Alt>
               <rdf:li xml:lang="x-default">Community culture icon - Black</rdf:li>
            </rdf:Alt>
         </dc:title>
         <dc:description>
            <rdf:Alt>
               <rdf:li xml:lang="x-default">open source, collaboration, upstream, downstream, contribute, contribution, connect, github, support, diagrams and graphs</rdf:li>
            </rdf:Alt>
         </dc:description>
         <cq:lastReplicationAction_scene7>Activate</cq:lastReplicationAction_scene7>
         <cq:lastReplicationAction_publish>Activate</cq:lastReplicationAction_publish>
         <cq:lastReplicated_publish>2024-02-09T22:21:41.313Z</cq:lastReplicated_publish>
         <cq:lastReplicatedBy>workflow-process-service</cq:lastReplicatedBy>
         <cq:lastReplicationAction>Activate</cq:lastReplicationAction>
         <cq:lastReplicatedBy_publish>workflow-process-service</cq:lastReplicatedBy_publish>
         <cq:isDelivered>true</cq:isDelivered>
         <cq:lastReplicated>2024-02-09T22:21:41.313Z</cq:lastReplicated>
         <cq:lastReplicatedBy_scene7>workflow-process-service</cq:lastReplicatedBy_scene7>
         <cq:lastReplicated_scene7>2024-02-09T22:21:41.313Z</cq:lastReplicated_scene7>
         <tiff:ImageLength>36</tiff:ImageLength>
         <tiff:ImageWidth>36</tiff:ImageWidth>
      </rdf:Description>
   </rdf:RDF>
</x:xmpmeta>
                                                                                                    
                                                                                                    
                                                                                                    
                                                                                                    
                                                                                                    
                                                                                                    
                                                                                                    
                                                                                                    
                                                                                                    
                                                                                                    
                                 
<?xpacket end="w"?></metadata>
<g>
    <path d="M21.69,17.07a6.48,6.48,0,0,0,6.47-6.48c-.27-8.56-12.7-8.54-12.95,0A6.48,6.48,0,0,0,21.69,17.07ZM18.55,6.41a5.23,5.23,0,1,1,3.14,9.41A5.26,5.26,0,0,1,18.55,6.41Z"/>
    <path d="M9.85,12.72A6.5,6.5,0,0,0,3.38,19.2c.3,8.57,12.64,8.57,13,0A6.49,6.49,0,0,0,9.85,12.72Zm0,11.71C2.94,24.2,3,14.18,9.85,14,16.76,14.19,16.76,24.21,9.85,24.43Z"/>
    <path d="M23.21,18.67a6.5,6.5,0,0,0-6.47,6.48c.3,8.57,12.64,8.57,13,0A6.49,6.49,0,0,0,23.21,18.67Zm0,11.71c-6.91-.23-6.9-10.25,0-10.46C30.12,20.14,30.12,30.16,23.21,30.38Z"/>
    <path d="M31.1,14.63A2.58,2.58,0,0,0,29,19.34,2.58,2.58,0,0,0,31.1,14.63Zm.16,2.9a1.33,1.33,0,0,1-2.42-1.08A1.33,1.33,0,0,1,31.26,17.53Z"/>
    <path d="M10.29,11a2.58,2.58,0,0,0,2.1-4.71A2.58,2.58,0,0,0,10.29,11Zm-.16-2.89A1.33,1.33,0,0,1,12.55,9.2,1.33,1.33,0,0,1,10.13,8.12Z"/>
    <path d="M14.6,26.5a2.58,2.58,0,0,0-2.09,4.71A2.58,2.58,0,0,0,14.6,26.5Zm.17,2.9a1.33,1.33,0,0,1-2.42-1.08A1.33,1.33,0,0,1,14.77,29.4Z"/>
  </g>
</svg>
